X:86
T:Astleys Hornpipe
S:John Moore's Book 2
Z:Transcribed by Edmund Spriggs 05/2021
%%VWML: Moore1-4494-p67-0
F:http://www.vwml.org/record/Moore2/4494/p67
R:Hornpipe
M:C
N:Bar 11 is unclear in the manuscript.
L:1/8
K:G
GABc dBAG|agfee2dc|BdBG cecA|BdBG GFED|
GABc dBAG|agfee2dc|BdBG cecA|G2F2G4:|
|:defg fafd|gbgd fafd|defg ac{e}c2|BdBG FAFD|
BdBG cecA|Fafd Gbge|Bgfe dcBA|G2F2G4:|

